packages/ffe-icons/icons/filled/sm/work_history.svg

<svg xmlns="http://www.w3.org/2000/svg" height="20" viewBox="0 -960 960 960" width="20"><path d="M408-699.999h144v-59.691q0-5.385-3.462-8.847-3.462-3.462-8.847-3.462H420.309q-5.385 0-8.847 3.462Q408-765.075 408-759.69v59.691ZM671.774-68.001q-71.696 0-121.735-50.265-50.038-50.264-50.038-121.96t50.265-121.735q50.264-50.038 121.96-50.038t121.735 50.265q50.038 50.264 50.038 121.96t-50.265 121.735q-50.264 50.038-121.96 50.038Zm-491.465-96q-27.008 0-45.658-18.65-18.65-18.65-18.65-45.658v-407.382q0-27.008 18.65-45.658 18.65-18.65 45.658-18.65h175.692v-59.903q0-27.095 18.676-45.595t45.72-18.5h119.558q27.044 0 45.544 18.65 18.5 18.65 18.5 45.657v59.691h175.692q27.008 0 45.658 18.65 18.65 18.65 18.65 45.658v177q0 14.461-12.77 20.192-12.769 5.731-24.23-3.115-29.923-20.692-63.077-31.538-33.153-10.847-71.922-10.847-101.922 0-172.961 71.038Q428.001-341.922 428.001-240q0 7.154.039 17.999.038 10.846 1.884 21 1.846 14.846-5.692 25.923-7.538 11.077-22 11.077H180.309Zm513.383-85.23V-312q0-8.831-6.431-15.261-6.43-6.431-15.261-6.431t-15.261 6.431q-6.431 6.43-6.431 15.261v68.154q0 7.231 2.615 12.769 2.616 5.538 7.322 10.245l51.294 51.293q6.594 6.231 15.451 6.423 8.856.193 15.471-6.423 6.616-6.615 6.616-15.279t-6.616-15.643l-48.769-48.77Z"/></svg>

<svg xmlns="http://www.w3.org/2000/svg" height="20" viewBox="0 -960 960 960" width="20"><path d="M408-700h144v-59.69q0-5.38-3.46-8.85-3.46-3.46-8.85-3.46H420.31q-5.39 0-8.85 3.46-3.46 3.47-3.46 8.85V-700ZM671.77-68q-71.69 0-121.73-50.27Q500-168.53 500-240.23q0-71.69 50.27-121.73Q600.53-412 672.23-412q71.69 0 121.73 50.27Q844-311.47 844-239.77q0 71.69-50.27 121.73Q743.47-68 671.77-68Zm-491.46-96q-27.01 0-45.66-18.65Q116-201.3 116-228.31v-407.38q0-27.01 18.65-45.66Q153.3-700 180.31-700H356v-59.9q0-27.1 18.68-45.6Q393.35-824 420.4-824h119.56q27.04 0 45.54 18.65t18.5 45.66V-700h175.69q27.01 0 45.66 18.65Q844-662.7 844-635.69v177q0 14.46-12.77 20.19T807-441.61q-29.92-20.7-63.08-31.54Q710.77-484 672-484q-101.92 0-172.96 71.04T428-240q0 7.15.04 18t1.88 21q1.85 14.84-5.69 25.92-7.54 11.08-22 11.08H180.31Zm513.38-85.23V-312q0-8.83-6.43-15.26T672-333.69q-8.83 0-15.26 6.43T650.31-312v68.15q0 7.23 2.61 12.77 2.62 5.54 7.32 10.25l51.3 51.29q6.59 6.23 15.45 6.42 8.86.2 15.47-6.42 6.62-6.61 6.62-15.28 0-8.66-6.62-15.64l-48.77-48.77Z"/></svg>
